src/16/actions/mail-mark-read.svg

<svg xmlns="http://www.w3.org/2000/svg" viewBox="0 0 16 16">
  <defs id="defs3051">
    <style type="text/css" id="current-color-scheme">
      .ColorScheme-Text {
        color:#5d656b;
      }
      </style>
  </defs>
 <path style="fill:currentColor;fill-opacity:1;stroke:none" 
     d="M 3 2 L 3 4 L 1 6 L 1 14 L 15 14 L 15 6 L 13 4 L 13 2 L 3 2 z M 4 3 L 12 3 L 12 5.8632812 L 11.753906 6.0058594 L 8 7.8828125 L 4.2460938 6.0058594 L 4 5.8691406 L 4 3 z M 5 4 L 5 5 L 11 5 L 11 4 L 5 4 z M 2 7 L 3.9980469 7 L 4 7 L 7.9785156 8.9902344 L 7.9785156 8.9921875 L 8 9 L 8.0214844 8.9921875 L 8.0214844 8.9902344 L 12 7 L 12.001953 7 L 13 7 L 14 7 L 14 13 L 2 13 L 2 7 z "
     class="ColorScheme-Text"
     />
</svg>

<svg xmlns="http://www.w3.org/2000/svg" viewBox="0 0 16 16"><path d="M3 2v2L1 6v8h14V6l-2-2V2H3zm1 1h8v2.863l-.246.143L8 7.883 4.246 6.006 4 5.869V3zm1 1v1h6V4H5zM2 7h2l3.979 1.99v.002L8 9l.021-.008V8.99L12 7h2v6H2V7z" fill="currentColor" color="#5d656b"/></svg>
